ES1T1/13/aimg/a6.svg

<svg clip-rule="evenodd" fill-rule="evenodd" viewBox="0 0 200 200" xmlns="http://www.w3.org/2000/svg"><g transform="matrix(4.16667 0 0 4.16667 -1250.73 -475.873)"><path d="m318.704 137.056c-3.135-2.065-4.702-4.556-4.702-7.471 0-2.519.989-4.559 2.966-6.119 1.978-1.56 4.571-2.34 7.779-2.34 3.017 0 5.431.666 7.24 1.999s2.713 3.113 2.713 5.34c0 2.871-1.831 5.588-5.493 8.152 4.629 2.417 6.944 5.456 6.944 9.118 0 2.857-1.128 5.164-3.384 6.922-2.256 1.757-5.215 2.636-8.877 2.636-3.501 0-6.325-.805-8.471-2.417-2.146-1.611-3.219-3.735-3.219-6.372 0-3.823 2.168-6.972 6.504-9.448zm7.119-2.285c2.168-1.685 3.252-3.487 3.252-5.405 0-1.26-.446-2.267-1.34-3.022-.894-.754-2.073-1.131-3.538-1.131-1.362 0-2.464.329-3.306.988-.843.66-1.264 1.524-1.264 2.593 0 1.055.418 1.981 1.253 2.78.834.798 2.482 1.864 4.943 3.197zm-3.911 4.46c-2.358 1.963-3.537 4.036-3.537 6.219 0 1.699.589 3.098 1.768 4.196 1.18 1.099 2.677 1.648 4.494 1.648 1.597 0 2.933-.432 4.01-1.296s1.615-1.941 1.615-3.23c0-1.113-.363-2.066-1.088-2.857s-2.135-1.779-4.23-2.966z" fill="none" stroke="#aae1fa" stroke-width="2"/><path d="m.214-.387c-.07-.046-.105-.101-.105-.166 0-.056.022-.102.066-.136.044-.035.102-.052.173-.052.067 0 .121.015.161.044.04.03.06.069.06.119 0 .064-.04.124-.122.181.103.054.155.121.155.203 0 .063-.026.114-.076.153-.05.04-.116.059-.197.059-.078 0-.14-.018-.188-.054-.048-.035-.072-.083-.072-.141 0-.085.049-.155.145-.21zm.158-.051c.048-.037.072-.077.072-.12 0-.028-.01-.05-.029-.067-.02-.017-.047-.025-.079-.025-.03 0-.055.007-.074.022-.018.014-.028.033-.028.057s.01.044.028.062c.019.018.055.041.11.071zm-.087.099c-.052.044-.078.09-.078.138 0 .038.013.069.039.094.026.024.059.036.1.036.035 0 .065-.009.089-.029.024-.019.036-.043.036-.071 0-.025-.008-.046-.024-.064-.017-.017-.048-.039-.094-.066z" fill="#fff" fill-rule="nonzero" transform="matrix(45 0 0 45 309.08 154.48)"/></g></svg>

<?xml version="1.0" encoding="UTF-8" standalone="no"?>
<!DOCTYPE svg PUBLIC "-//W3C//DTD SVG 1.1//EN" "http://www.w3.org/Graphics/SVG/1.1/DTD/svg11.dtd">
<svg width="100%" height="100%" viewBox="0 0 200 200" version="1.1" xmlns="http://www.w3.org/2000/svg" xmlns:xlink="http://www.w3.org/1999/xlink" xml:space="preserve" xmlns:serif="http://www.serif.com/" style="fill-rule:evenodd;clip-rule:evenodd;">
    <g transform="matrix(4.16667,0,0,4.16667,-1250.73,-475.873)">
        <path d="M318.704,137.056C315.569,134.991 314.002,132.5 314.002,129.585C314.002,127.066 314.991,125.026 316.968,123.466C318.946,121.906 321.539,121.126 324.747,121.126C327.764,121.126 330.178,121.792 331.987,123.125C333.796,124.458 334.7,126.238 334.7,128.465C334.7,131.336 332.869,134.053 329.207,136.617C333.836,139.034 336.151,142.073 336.151,145.735C336.151,148.592 335.023,150.899 332.767,152.657C330.511,154.414 327.552,155.293 323.89,155.293C320.389,155.293 317.565,154.488 315.419,152.876C313.273,151.265 312.2,149.141 312.2,146.504C312.2,142.681 314.368,139.532 318.704,137.056ZM325.823,134.771C327.991,133.086 329.075,131.284 329.075,129.366C329.075,128.106 328.629,127.099 327.735,126.344C326.841,125.59 325.662,125.213 324.197,125.213C322.835,125.213 321.733,125.542 320.891,126.201C320.048,126.861 319.627,127.725 319.627,128.794C319.627,129.849 320.045,130.775 320.88,131.574C321.714,132.372 323.362,133.438 325.823,134.771ZM321.912,139.231C319.554,141.194 318.375,143.267 318.375,145.45C318.375,147.149 318.964,148.548 320.143,149.646C321.323,150.745 322.82,151.294 324.637,151.294C326.234,151.294 327.57,150.862 328.647,149.998C329.724,149.134 330.262,148.057 330.262,146.768C330.262,145.655 329.899,144.702 329.174,143.911C328.449,143.12 327.039,142.132 324.944,140.945L321.912,139.231Z" style="fill:none;fill-rule:nonzero;stroke:rgb(170,225,250);stroke-width:2px;"/>
        <g transform="matrix(45,0,0,45,309.08,154.48)">
            <path d="M0.214,-0.387C0.144,-0.433 0.109,-0.488 0.109,-0.553C0.109,-0.609 0.131,-0.655 0.175,-0.689C0.219,-0.724 0.277,-0.741 0.348,-0.741C0.415,-0.741 0.469,-0.726 0.509,-0.697C0.549,-0.667 0.569,-0.628 0.569,-0.578C0.569,-0.514 0.529,-0.454 0.447,-0.397C0.55,-0.343 0.602,-0.276 0.602,-0.194C0.602,-0.131 0.576,-0.08 0.526,-0.041C0.476,-0.001 0.41,0.018 0.329,0.018C0.251,0.018 0.189,0 0.141,-0.036C0.093,-0.071 0.069,-0.119 0.069,-0.177C0.069,-0.262 0.118,-0.332 0.214,-0.387ZM0.372,-0.438C0.42,-0.475 0.444,-0.515 0.444,-0.558C0.444,-0.586 0.434,-0.608 0.415,-0.625C0.395,-0.642 0.368,-0.65 0.336,-0.65C0.306,-0.65 0.281,-0.643 0.262,-0.628C0.244,-0.614 0.234,-0.595 0.234,-0.571C0.234,-0.547 0.244,-0.527 0.262,-0.509C0.281,-0.491 0.317,-0.468 0.372,-0.438ZM0.285,-0.339C0.233,-0.295 0.207,-0.249 0.207,-0.201C0.207,-0.163 0.22,-0.132 0.246,-0.107C0.272,-0.083 0.305,-0.071 0.346,-0.071C0.381,-0.071 0.411,-0.08 0.435,-0.1C0.459,-0.119 0.471,-0.143 0.471,-0.171C0.471,-0.196 0.463,-0.217 0.447,-0.235C0.43,-0.252 0.399,-0.274 0.353,-0.301L0.285,-0.339Z" style="fill:white;fill-rule:nonzero;"/>
        </g>
    </g>
</svg>
